en/_assets/api-gateway/spec-constructor/cloud-datasphere.svg

<?xml version="1.0" encoding="UTF-8"?>
<svg xmlns="http://www.w3.org/2000/svg" xmlns:xlink="http://www.w3.org/1999/xlink" width="16px" height="16px" viewBox="0 0 16 16" version="1.1">
<g id="surface1">
<path style=" stroke:none;fill-rule:evenodd;fill:rgb(32.156863%,50.980392%,100%);fill-opacity:1;" d="M 0.0625 9 L 10.082031 9 C 10.289062 9.585938 10.84375 10 11.496094 10 C 11.894531 10 12.277344 9.84375 12.558594 9.5625 C 12.839844 9.28125 12.996094 8.898438 12.996094 8.5 C 12.996094 8.101562 12.839844 7.71875 12.558594 7.4375 C 12.277344 7.15625 11.894531 7 11.496094 7 C 10.84375 7 10.285156 7.414062 10.082031 8 L 0 8 L 0 8.027344 L 0 8 C 0 3.585938 3.585938 0 8 0 C 9.199219 0 10.382812 0.269531 11.464844 0.789062 C 12.542969 1.308594 13.496094 2.0625 14.242188 3 L 7.914062 3 C 7.710938 2.414062 7.152344 2 6.5 2 C 6.226562 2 5.957031 2.074219 5.71875 2.21875 C 5.484375 2.363281 5.292969 2.566406 5.167969 2.808594 C 5.042969 3.054688 4.984375 3.328125 5.003906 3.601562 C 5.023438 3.878906 5.117188 4.140625 5.273438 4.367188 C 5.433594 4.589844 5.652344 4.765625 5.902344 4.875 C 6.15625 4.984375 6.433594 5.023438 6.707031 4.984375 C 6.976562 4.949219 7.234375 4.835938 7.449219 4.664062 C 7.660156 4.488281 7.824219 4.257812 7.914062 4 L 14.929688 4 C 15.632812 5.214844 16 6.59375 16 8 C 16 9.453125 15.609375 10.828125 14.925781 12 L 7.914062 12 C 7.710938 11.414062 7.152344 11 6.5 11 C 6.226562 11 5.957031 11.074219 5.71875 11.21875 C 5.484375 11.359375 5.292969 11.566406 5.167969 11.808594 C 5.042969 12.054688 4.984375 12.328125 5.003906 12.601562 C 5.023438 12.878906 5.117188 13.140625 5.273438 13.367188 C 5.433594 13.589844 5.652344 13.765625 5.902344 13.875 C 6.15625 13.984375 6.433594 14.023438 6.707031 13.984375 C 6.976562 13.949219 7.234375 13.835938 7.449219 13.664062 C 7.660156 13.488281 7.824219 13.257812 7.914062 13 L 14.242188 13 C 13.496094 13.9375 12.542969 14.691406 11.464844 15.210938 C 10.382812 15.730469 9.199219 16 8 16 C 6.050781 16 4.167969 15.289062 2.707031 14 C 1.246094 12.710938 0.304688 10.933594 0.0625 9 Z M 0.0625 9 "/>
</g>
</svg>

<svg xmlns="http://www.w3.org/2000/svg" width="16" height="16" viewBox="0 0 16 16">
    <path d="M.063 9h10.019a1.502 1.502 0 0 0 2.477.563 1.51 1.51 0 0 0 0-2.126A1.502 1.502 0 0 0 11.496 7c-.652 0-1.21.414-1.414 1H0v.027V8c0-4.414 3.586-8 8-8 1.2 0 2.383.27 3.465.79A7.97 7.97 0 0 1 14.242 3H7.914a1.504 1.504 0 0 0-2.746-.191 1.514 1.514 0 0 0 .105 1.558c.16.223.38.399.63.508a1.507 1.507 0 0 0 1.547-.21c.21-.177.374-.407.464-.665h7.016A7.98 7.98 0 0 1 16 8a7.93 7.93 0 0 1-1.074 4H7.914a1.504 1.504 0 0 0-2.746-.191 1.514 1.514 0 0 0 .105 1.558c.16.223.38.399.63.508a1.507 1.507 0 0 0 1.547-.21c.21-.177.374-.407.464-.665h6.328a7.97 7.97 0 0 1-2.777 2.21A8.003 8.003 0 0 1 2.707 14 7.994 7.994 0 0 1 .063 9Zm0 0" style="stroke:none;fill-rule:evenodd;fill:#5282ff;fill-opacity:1"/>
</svg>
